dist/svgs/unicons/line/desktop-cloud-alt.svg

<svg xmlns="http://www.w3.org/2000/svg" data-name="Layer 1" viewBox="0 0 24 24"><path d="M4.5 10H10a3 3 0 001.07-5.8 4 4 0 00-7.48 1A2.5 2.5 0 004.5 10zm0-3a1 1 0 001-1 2 2 0 013.89-.64 1 1 0 00.78.66A1 1 0 0111 7a1 1 0 01-1 1H4.5a.5.5 0 010-1zM19 2h-5a1 1 0 000 2h5a1 1 0 011 1v7H3a1 1 0 00-1 1v2a3 3 0 003 3h3v2H5a1 1 0 000 2h14a1 1 0 000-2h-3v-2h3a3 3 0 003-3V5a3 3 0 00-3-3zm-5 18h-4v-2h4zm6-5a1 1 0 01-1 1H5a1 1 0 01-1-1v-1h16z"/></svg>

<svg xmlns="http://www.w3.org/2000/svg" data-name="Layer 1" viewBox="0 0 24 24"><path d="M4.5,10H10a3,3,0,0,0,1.07-5.8,4,4,0,0,0-7.48,1A2.5,2.5,0,0,0,4.5,10Zm0-3a1,1,0,0,0,1-1,2,2,0,0,1,3.89-.64,1,1,0,0,0,.78.66A1,1,0,0,1,11,7a1,1,0,0,1-1,1H4.5a.5.5,0,0,1,0-1ZM19,2H14a1,1,0,0,0,0,2h5a1,1,0,0,1,1,1v7H3a1,1,0,0,0-1,1v2a3,3,0,0,0,3,3H8v2H5a1,1,0,0,0,0,2H19a1,1,0,0,0,0-2H16V18h3a3,3,0,0,0,3-3V5A3,3,0,0,0,19,2ZM14,20H10V18h4Zm6-5a1,1,0,0,1-1,1H5a1,1,0,0,1-1-1V14H20Z"/></svg>
